archdroid-icon-theme/Archdroid-ArchBlue/apps/scalable/ooo-base.svg

<?xml version="1.0" encoding="UTF-8" standalone="no"?>
<svg
   xmlns:dc="http://purl.org/dc/elements/1.1/"
   xmlns:cc="http://creativecommons.org/ns#"
   xmlns:rdf="http://www.w3.org/1999/02/22-rdf-syntax-ns#"
   xmlns:svg="http://www.w3.org/2000/svg"
   xmlns="http://www.w3.org/2000/svg"
   xmlns:sodipodi="http://sodipodi.sourceforge.net/DTD/sodipodi-0.dtd"
   xmlns:inkscape="http://www.inkscape.org/namespaces/inkscape"
   fill="#1793D1"
   width="48"
   height="48"
   viewBox="0 0 48 48"
   id="svg2"
   version="1.1"
   inkscape:version="0.91 r13725"
   sodipodi:docname="ooo-base.svg">
  <metadata
     id="metadata10">
    <rdf:RDF>
      <cc:Work
         rdf:about="">
        <dc:format>image/svg+xml</dc:format>
        <dc:type
           rdf:resource="http://purl.org/dc/dcmitype/StillImage" />
        <dc:title />
      </cc:Work>
    </rdf:RDF>
  </metadata>
  <defs
     id="defs8" />
  <sodipodi:namedview
     pagecolor="#ffffff"
     bordercolor="#666666"
     borderopacity="1"
     objecttolerance="10"
     gridtolerance="10"
     guidetolerance="10"
     inkscape:pageopacity="0"
     inkscape:pageshadow="2"
     inkscape:window-width="1366"
     inkscape:window-height="713"
     id="namedview6"
     showgrid="false"
     inkscape:zoom="17.47831746412636"
     inkscape:cx="25.90475706930899"
     inkscape:cy="15.79831091785089"
     inkscape:window-x="0"
     inkscape:window-y="30"
     inkscape:window-maximized="1"
     inkscape:current-layer="svg2"
     inkscape:snap-bbox="true"
     inkscape:bbox-paths="true"
     inkscape:bbox-nodes="true"
     inkscape:snap-bbox-edge-midpoints="false"
     inkscape:snap-bbox-midpoints="false"
     inkscape:snap-object-midpoints="false" />
  <path
     style="fill:#c24b02;fill-opacity:1"
     d="M 12 4 C 9.789999999999999 4 8.019531250000002 5.790000000000001 8.01953125 8 L 8 40 C 8 42.21 9.77046855 44 11.98046875 44 L 36 44 C 38.21 44 40 42.21 40 40 L 40 16 L 28 4 L 12 4 z M 26 7 L 37 18 L 26 18 L 26 7 z M 16.85546875 24 L 31.14453125 24 C 31.6184462214286 24.00000000000005 32 24.22604107142854 32 24.5078125 L 32 27.4921875 C 32 27.77395892857136 31.6184462214286 28 31.14453125 28 L 16.85546875 28 C 16.3815534585714 27.9999999999999 16 27.77395892857148 16 27.4921875 L 16 24.5078125 C 16 24.22604107142864 16.38155345857141 23.99999999999999 16.85546875 24 z M 16.85546875 29 L 31.14453125 29 C 31.6184462214286 29.00000000000005 32 29.22604107142854 32 29.5078125 L 32 32.4921875 C 32 32.77395892857136 31.6184462214286 33.00000000000001 31.14453125 33 L 16.85546875 33 C 16.3815534585714 32.9999999999999 16 32.7739589285715 16 32.4921875 L 16 29.5078125 C 16 29.22604107142864 16.38155345857141 29 16.85546875 29 z M 16.85546875 34 L 31.14453125 34 C 31.6184462214286 34.00000000000004 32 34.22604107142853 32 34.5078125 L 32 37.4921875 C 32 37.77395892857136 31.6184462214286 38.00000000000001 31.14453125 38 L 16.85546875 38 C 16.3815534585714 37.99999999999989 16 37.7739589285715 16 37.4921875 L 16 34.5078125 C 16 34.22604107142864 16.38155345857141 34 16.85546875 34 z "
     id="path4155" />
</svg>

<svg xmlns="http://www.w3.org/2000/svg" fill="#1793D1" viewBox="0 0 48 48"><path d="m12 4c-2.21 0-3.98 1.79-3.98 4l-.02 32c0 2.21 1.77 4 3.98 4h24.02c2.21 0 4-1.79 4-4v-24l-12-12h-16m14 3l11 11h-11v-11m-9.145 17h14.289c.474 0 .855.226.855.508v2.984c0 .282-.382.508-.855.508h-14.289c-.474 0-.855-.226-.855-.508v-2.984c0-.282.382-.508.855-.508m0 5h14.289c.474 0 .855.226.855.508v2.984c0 .282-.382.508-.855.508h-14.289c-.474 0-.855-.226-.855-.508v-2.984c0-.282.382-.508.855-.508m0 5h14.289c.474 0 .855.226.855.508v2.984c0 .282-.382.508-.855.508h-14.289c-.474 0-.855-.226-.855-.508v-2.984c0-.282.382-.508.855-.508" fill="#c24b02"/></svg>
